svgs/duotone/piano-keyboard.svg

<svg xmlns="http://www.w3.org/2000/svg" viewBox="0 0 576 512"><!-- Font Awesome Pro 6.0.0-alpha2 by @fontawesome - https://fontawesome.com License - https://fontawesome.com/license (Commercial License) --><defs><style>.fa-secondary{opacity:.4}</style></defs><path d="M576 224V416C576 433.625 561.625 448 544 448H32C14.375 448 0 433.625 0 416V224H64V384H512V224H576Z" class="fa-secondary"/><path d="M576 96V224H448V304C448 312.875 440.875 320 432 320H400C391.125 320 384 312.875 384 304V224H320V304C320 312.875 312.875 320 304 320H272C263.125 320 256 312.875 256 304V224H192V304C192 312.875 184.875 320 176 320H144C135.125 320 128 312.875 128 304V224H0V96C0 78.375 14.375 64 32 64H544C561.625 64 576 78.375 576 96Z" class="fa-primary"/></svg>

<svg xmlns="http://www.w3.org/2000/svg" viewBox="0 0 576 512"><!--! Font Awesome Pro 6.3.0 by @fontawesome - https://fontawesome.com License - https://fontawesome.com/license (Commercial License) Copyright 2023 Fonticons, Inc. --><defs><style>.fa-secondary{opacity:.4}</style></defs><path class="fa-primary" d="M576 96v128h-128v80c0 8.875-7.125 16-16 16h-32C391.1 320 384 312.9 384 304V224h-64v80c0 8.875-7.125 16-16 16h-32C263.1 320 256 312.9 256 304V224H192v80C192 312.9 184.9 320 176 320h-32C135.1 320 128 312.9 128 304V224H0V96c0-17.62 14.38-32 32-32h512C561.6 64 576 78.38 576 96z"/><path class="fa-secondary" d="M576 224v192c0 17.62-14.38 32-32 32H32c-17.62 0-32-14.38-32-32V224h64v160h448V224H576z"/></svg>
